X: 509
T: Dailey's Reel
B: jims roots
M:C|
L:1/8
Q: 1/4=100
K:Bb
V:1 
x DF |: "Bb"B2 dc BFDF | BcdB edcB | "F"AcFc AcFc  |
FAcd ecAF | "Bb"B2 dc BFDF | BcdB edcB | "F"ABcd ecAF |
[1 BABc "Bb"B2 DF:| [2 BABc "Bb"B2 df |: "Eb"g2 gb gfeB | G2 GA BAG2 |
"Bb"f2 fg fed2 | FDFG AGFD | "F"EFAc e2 e2 | "Bb"DFBc d2 d2 |
"F"c2 cd edcA |[1 "Bb"BABc defb :|[2 "Bb"BABc B2z2 |]
% abcbook-tune_id 6298c24549c6e020dca1d8fe


% abcbook-boost 0
% abcbook-tablature 
% abcbook-transpose 
% abcbook-lastupdated 1654178373921
% abcbook-soundfonts 
% abcbook-repeats 1


